svg/black/sngls.svg

<svg xmlns="http://www.w3.org/2000/svg" width="32" height="32" viewBox="0 0 32 32">
  <path fill-rule="evenodd" d="M16,32 C7.163444,32 0,24.836556 0,16 C0,7.163444 7.163444,0 16,0 C24.836556,0 32,7.163444 32,16 C32,24.836556 24.836556,32 16,32 Z M16.9126638,21.2335878 C22.5423581,20.7969466 26.9615721,16.5992366 26.9615721,16.5992366 C26.9615721,16.5992366 22.6672489,12.510687 17.1528384,11.9847328 L16.730131,11.2503817 L15.980786,10 L15.5388646,10.7343511 L14.8087336,11.9847328 C9.29432314,12.5206107 5,16.589313 5,16.5992366 C5,16.5992366 9.41921397,20.7969466 15.0489083,21.2335878 L15.980786,22.970229 L16.9126638,21.2335878 Z M5.93187773,16.5992366 C5.93187773,16.5992366 9.9860262,13.8305344 14.1554585,13.1259542 L13.4925764,14.2671756 L14.0113537,15.2793893 L15.4139738,12.9770992 C15.6061135,12.9671756 15.7982533,12.9572519 15.980786,12.9572519 C16.1633188,12.9572519 16.3554585,12.9671756 16.5379913,12.9770992 L17.9117904,15.2793893 L18.4401747,14.2175573 L17.8061135,13.1160305 C21.9755459,13.810687 26.0296943,16.5198473 26.0296943,16.589313 C26.0296943,16.6687023 21.7737991,19.5068702 17.49869,20.1122137 L19.5834061,16.2022901 L19.0165939,15.2198473 L17.9310044,17.2442748 L16.4419214,20.2114504 C16.2786026,20.221374 16.1248908,20.221374 15.9615721,20.221374 C15.7982533,20.221374 15.6349345,20.221374 15.4716157,20.2114504 L13.4445415,16.2221374 L13.4541485,16.2122137 L12.9353712,15.2396947 L12.368559,16.2221374 L14.4532751,20.1221374 C10.1781659,19.5068702 5.92227074,16.5992366 5.93187773,16.5992366 Z"/>
</svg>

<svg xmlns="http://www.w3.org/2000/svg" width="32" height="32"><path fill-rule="evenodd" d="M16 32C7.163 32 0 24.837 0 16S7.163 0 16 0s16 7.163 16 16-7.163 16-16 16zm.913-10.766c5.63-.437 10.049-4.635 10.049-4.635s-4.295-4.088-9.81-4.614l-.422-.735-.75-1.25-.441.734-.73 1.25C9.294 12.522 5 16.59 5 16.6c0 0 4.42 4.198 10.049 4.635l.932 1.736.932-1.736zM5.932 16.599s4.054-2.768 8.223-3.473l-.662 1.141.518 1.012 1.403-2.302c.192-.01.384-.02.567-.02.182 0 .374.01.557.02l1.374 2.302.528-1.061-.634-1.102c4.17.695 8.224 3.404 8.224 3.473 0 .08-4.256 2.918-8.531 3.523l2.084-3.91-.566-.982-1.086 2.024-1.49 2.967c-.162.01-.316.01-.48.01-.163 0-.326 0-.49-.01l-2.026-3.989.01-.01-.52-.972-.566.982 2.084 3.9c-4.275-.615-8.53-3.523-8.521-3.523z"/></svg>
